src/icons/wormIcon.svg

<svg width="33" height="32" viewBox="0 0 33 32" fill="none" xmlns="http://www.w3.org/2000/svg">
  <path
    d="M16 30.6367C12.073 30.6342 8.30738 29.0727 5.52932 26.2948C2.75126 23.517 1.18768 19.7496 1.18164 15.8193C1.18768 11.8889 2.75117 8.12131 5.52918 5.34313C8.30718 2.56495 12.0728 1.00302 16 1C19.9272 1.00302 23.6928 2.56495 26.4708 5.34313C29.2488 8.12131 30.8123 11.8889 30.8184 15.8193C30.8123 19.7496 29.2488 23.517 26.4707 26.2948C23.6927 29.0727 19.927 30.6342 16 30.6367ZM16 2.14082C12.375 2.14334 8.89899 3.58492 6.33464 6.14926C3.7703 8.7136 2.32705 12.1913 2.32152 15.8193C2.32504 19.4478 3.76772 22.9265 6.33256 25.4909C8.89739 28.0554 12.3746 29.4959 16 29.4959C19.6255 29.4959 23.1027 28.0554 25.6675 25.4909C28.2323 22.9265 29.675 19.4478 29.6785 15.8193C29.673 12.1913 28.2297 8.7136 25.6654 6.14926C23.101 3.58492 19.625 2.14334 16 2.14082Z"
    fill="white"
  />
  <path
    d="M17.8721 28.2907C14.6186 28.2882 11.499 26.9942 9.19752 24.6926C6.89605 22.391 5.60073 19.2697 5.5957 16.0135C5.60073 12.7573 6.89605 9.63603 9.19752 7.33443C11.499 5.03283 14.6186 3.73884 17.8721 3.73633C21.1256 3.73884 24.2453 5.03283 26.5468 7.33443C28.8482 9.63603 30.1435 12.7573 30.1486 16.0135C30.1435 19.2697 28.8482 22.391 26.5468 24.6926C24.2453 26.9942 21.1256 28.2882 17.8721 28.2907ZM17.8721 4.62238C14.8536 4.62489 11.9593 5.82559 9.82418 7.96108C7.68904 10.0966 6.48742 12.9925 6.48289 16.0135C6.48792 19.0342 7.68979 21.9296 9.82487 24.0647C11.96 26.1998 14.8539 27.4002 17.8721 27.4027C20.8903 27.4002 23.7843 26.1998 25.9194 24.0647C28.0545 21.9296 29.2564 19.0342 29.2614 16.0135C29.2564 12.9928 28.0545 10.0974 25.9194 7.96229C23.7843 5.82721 20.8903 4.62679 17.8721 4.62428V4.62238Z"
    fill="white"
  />
  <path
    d="M19.7463 25.9505C17.1664 25.9485 14.6927 24.9225 12.8678 23.0974C11.0429 21.2724 10.0157 18.7975 10.0117 16.2155C10.0157 13.6335 11.0429 11.1586 12.8678 9.33355C14.6927 7.50853 17.1664 6.48248 19.7463 6.48047C22.3262 6.48198 24.8002 7.50787 26.6252 9.33299C28.4502 11.1581 29.4772 13.6334 29.4807 16.2155C29.4767 18.7975 28.4496 21.2724 26.6247 23.0974C24.7997 24.9225 22.3261 25.9485 19.7463 25.9505ZM19.7463 7.11362C17.3341 7.11513 15.0209 8.07431 13.3146 9.78069C11.6082 11.4871 10.6478 13.8013 10.6443 16.2155C10.6483 18.6294 11.6089 20.9431 13.3153 22.6491C15.0216 24.355 17.3344 25.314 19.7463 25.3155C22.1581 25.314 24.4709 24.355 26.1773 22.6491C27.8836 20.9431 28.8442 18.6294 28.8482 16.2155C28.8447 13.8013 27.8843 11.4871 26.1779 9.78069C24.4715 8.07431 22.1585 7.11513 19.7463 7.11362Z"
    fill="white"
  />
  <path
    d="M21.6184 23.6045C19.7122 23.603 17.8845 22.8449 16.5361 21.4964C15.1877 20.148 14.4288 18.3193 14.4258 16.4116C14.4283 14.5035 15.187 12.6744 16.5355 11.3255C17.8839 9.97668 19.7119 9.21831 21.6184 9.2168C23.5248 9.21831 25.3529 9.97668 26.7013 11.3255C28.0498 12.6744 28.8084 14.5035 28.811 16.4116C28.8079 18.3193 28.0491 20.148 26.7007 21.4964C25.3523 22.8449 23.5245 23.603 21.6184 23.6045ZM21.6184 9.59707C19.8127 9.59858 18.0813 10.3169 16.8041 11.5944C15.527 12.872 14.8083 14.6044 14.8057 16.4116C14.8088 18.2185 15.5277 19.9504 16.8048 21.2275C18.0819 22.5046 19.813 23.2227 21.6184 23.2242C23.4237 23.2227 25.1548 22.5046 26.4319 21.2275C27.7091 19.9504 28.428 18.2185 28.431 16.4116C28.4285 14.6044 27.7099 12.872 26.4327 11.5944C25.1555 10.3169 23.4241 9.59858 21.6184 9.59707Z"
    fill="white"
  />
</svg>

<svg
  xmlns="http://www.w3.org/2000/svg"
  width="33"
  height="32"
  fill="#fff"
  xmlns:v="https://vecta.io/nano"
>
  <path
    d="M16 30.637a14.82 14.82 0 0 1-10.471-4.342c-2.778-2.778-4.342-6.545-4.348-10.475A14.85 14.85 0 0 1 5.529 5.343C8.307 2.565 12.073 1.003 16 1c3.927.003 7.693 1.565 10.471 4.343a14.85 14.85 0 0 1 4.348 10.476c-.006 3.93-1.57 7.698-4.348 10.475A14.82 14.82 0 0 1 16 30.637zm0-28.496a13.68 13.68 0 0 0-9.665 4.008c-2.564 2.564-4.008 6.042-4.013 9.67.004 3.629 1.446 7.107 4.011 9.672s6.042 4.005 9.667 4.005 7.103-1.44 9.668-4.005 4.008-6.043 4.011-9.672c-.006-3.628-1.449-7.106-4.013-9.67S19.625 2.143 16 2.141z"
  />
  <path
    d="M17.872 28.291a12.28 12.28 0 0 1-8.675-3.598 12.3 12.3 0 0 1-3.602-8.679 12.3 12.3 0 0 1 3.602-8.679 12.28 12.28 0 0 1 8.675-3.598 12.28 12.28 0 0 1 8.675 3.598 12.3 12.3 0 0 1 3.602 8.679 12.3 12.3 0 0 1-3.602 8.679 12.28 12.28 0 0 1-8.675 3.598zm0-23.668c-3.018.003-5.913 1.203-8.048 3.339s-3.337 5.031-3.341 8.052c.005 3.021 1.207 5.916 3.342 8.051s5.029 3.336 8.047 3.338 5.912-1.203 8.047-3.338 3.337-5.03 3.342-8.051c-.005-3.021-1.207-5.916-3.342-8.051s-5.029-3.336-8.047-3.338v-.002z"
  />
  <path
    d="M19.746 25.951a9.74 9.74 0 0 1-6.879-2.853c-1.825-1.825-2.852-4.3-2.856-6.882.004-2.582 1.031-5.057 2.856-6.882a9.74 9.74 0 0 1 6.879-2.853c2.58.002 5.054 1.027 6.879 2.853a9.75 9.75 0 0 1 2.855 6.883c-.004 2.582-1.031 5.057-2.856 6.882a9.74 9.74 0 0 1-6.878 2.853zm0-18.837a9.11 9.11 0 0 0-6.432 2.667 9.12 9.12 0 0 0-2.67 6.435 9.12 9.12 0 0 0 2.671 6.434 9.1 9.1 0 0 0 6.431 2.666 9.09 9.09 0 0 0 6.431-2.666 9.12 9.12 0 0 0 2.671-6.434 9.12 9.12 0 0 0-2.67-6.435 9.1 9.1 0 0 0-6.432-2.667zm1.872 16.491a7.2 7.2 0 0 1-5.082-2.108 7.21 7.21 0 0 1-2.11-5.085c.002-1.908.761-3.737 2.11-5.086s3.176-2.107 5.083-2.109a7.18 7.18 0 0 1 5.083 2.109 7.21 7.21 0 0 1 2.11 5.086 7.21 7.21 0 0 1-2.11 5.085 7.19 7.19 0 0 1-5.082 2.108zm0-14.007a6.82 6.82 0 0 0-4.814 1.997 6.83 6.83 0 0 0-1.998 4.817c.003 1.807.722 3.539 1.999 4.816a6.82 6.82 0 0 0 4.814 1.997 6.8 6.8 0 0 0 4.813-1.997c1.277-1.277 1.996-3.009 1.999-4.816a6.83 6.83 0 0 0-1.998-4.817c-1.277-1.277-3.009-1.996-4.814-1.997z"
  />
</svg>
